X: 11809
T: Ellen's Delight
R: polka
M: 2/4
K: Gmajor
|:G2 gf/g/|fe ed/e/|AB c/^c/d/f/|ed B>A|
G2 gf/g/|fe e>e|AB c/B/A|GF G2:|
|:b2 bd|bd bd/b/|ad ad|e/f/g af/a/|
b2 bd|bd bg/b/|a>g ef|g2 g2:|

